docs/styles/img/icons/socialFooter/vk.svg

<svg width="24" height="14" viewBox="0 0 24 14" fill="none" xmlns="http://www.w3.org/2000/svg">
<path fill-rule="evenodd" clip-rule="evenodd" d="M13.0145 13.5137C13.0145 13.5137 13.4423 13.467 13.6614 13.236C13.862 13.0243 13.855 12.6249 13.855 12.6249C13.855 12.6249 13.8284 10.7597 14.7107 10.4843C15.5802 10.2134 16.6966 12.288 17.8815 13.0858C18.7766 13.689 19.4559 13.5569 19.4559 13.5569L22.6222 13.5137C22.6222 13.5137 24.2777 13.4136 23.4928 12.1355C23.4279 12.0308 23.0349 11.1898 21.1393 9.46232C19.1533 7.65399 19.42 7.94646 21.8106 4.81802C23.2668 2.91296 23.8488 1.74989 23.6668 1.25258C23.494 0.77688 22.4228 0.903201 22.4228 0.903201L18.8589 0.924823C18.8589 0.924823 18.5945 0.889544 18.3986 1.00449C18.2073 1.11715 18.0833 1.38004 18.0833 1.38004C18.0833 1.38004 17.5198 2.85378 16.7674 4.10789C15.1802 6.75267 14.546 6.89265 14.2863 6.72877C13.6823 6.34526 13.833 5.19016 13.833 4.36964C13.833 1.80566 14.2295 0.737049 13.062 0.460507C12.6748 0.368327 12.3896 0.308012 11.3983 0.297769C10.1265 0.285251 9.05063 0.302321 8.44081 0.594795C8.03503 0.789398 7.722 1.22413 7.91329 1.24916C8.14865 1.27989 8.68195 1.39028 8.96484 1.7681C9.33004 2.25632 9.31729 3.3511 9.31729 3.3511C9.31729 3.3511 9.52713 6.36915 8.82687 6.74357C8.3469 7.00076 7.68838 6.47613 6.27279 4.07603C5.54819 2.84695 5.00097 1.48815 5.00097 1.48815C5.00097 1.48815 4.89547 1.23437 4.70649 1.0978C4.47809 0.93279 4.15927 0.881578 4.15927 0.881578L0.772762 0.903201C0.772762 0.903201 0.2638 0.916857 0.0771423 1.13422C-0.088647 1.32655 0.0643893 1.726 0.0643893 1.726C0.0643893 1.726 2.71586 7.81559 5.71862 10.8849C8.47211 13.6981 11.5978 13.5137 11.5978 13.5137H13.0145Z" fill="#AEAEAE"/>
</svg>

<svg width="24" height="14" fill="none" xmlns="http://www.w3.org/2000/svg"><path fill-rule="evenodd" clip-rule="evenodd" d="M13.014 13.514s.428-.047.647-.278c.201-.212.194-.611.194-.611s-.027-1.865.856-2.14c.87-.272 1.986 1.803 3.17 2.6.896.604 1.575.472 1.575.472l3.166-.043s1.656-.1.87-1.378c-.064-.105-.457-.946-2.353-2.674-1.986-1.808-1.719-1.516.672-4.644 1.456-1.905 2.038-3.068 1.856-3.565-.173-.476-1.244-.35-1.244-.35l-3.564.022s-.265-.035-.46.08c-.192.112-.316.375-.316.375s-.563 1.474-1.316 2.728c-1.587 2.645-2.221 2.785-2.48 2.62-.605-.383-.454-1.538-.454-2.358 0-2.564.396-3.633-.771-3.91-.387-.092-.672-.152-1.664-.162-1.271-.013-2.347.004-2.957.297-.406.194-.719.63-.528.654.236.03.769.141 1.052.52.365.487.352 1.582.352 1.582s.21 3.018-.49 3.393c-.48.257-1.139-.268-2.554-2.668C5.548 2.847 5 1.488 5 1.488s-.106-.254-.295-.39A1.46 1.46 0 004.16.882L.773.903s-.51.014-.696.231c-.166.193-.013.592-.013.592s2.652 6.09 5.655 9.159c2.753 2.813 5.879 2.629 5.879 2.629h1.416z" fill="#AEAEAE"/></svg>
